X: 18047
T: Humours Of Ayle House, The
R: jig
M: 6/8
K: Dmixolydian
FDE F2d|cAA BAG|FDE F2d|cAF ~G3|
FDE F2d|cAB cde|~f3 ded|1 cAF GAG:|2 cAF G2B||
|:cAA fed|cAG A2B|cAA fed|cAF GAB|
cAA fed|cAB cde|~f3 ded|1 cAF G2B:|2 cAF GAG||

